X:331
T:Davy Davy Nick Nack,aka. RH.331
T:Quick March. RH.331
R:reel
S:Rev.R.Harrison’s MS,c1815,Cumbria
N:Just Quick March in MS.
O:England
A:Temple Sowerby,Cumbria
Z:vmp.Simon Wilson. Review PJH, 2008.
M:2/4
L:1/16
Q:1/4=120
K:D
dcde f4|dcde f4|agfg e2e2|agfg e2e2|\
dcde f4|dcde f4|agfg agfe|d2d2 d4:|!
|:a2a2 f2f2|d’2d’2 a4|agfg e2e2|agfg e2e2|\
a2a2 f2f2|d’2d’2 a3g|fbag fedc|d2d2 d4:|!
|:f6 g2|a2b2 c’2d’2|b4 b3b|b4 bagf|\
e6 f2|g2e2 a2g2|f4 f3f|f4 z4|!
f6 g2|a2b2 c’2d’2|b4 b3b|b6 b2|\
a2d’2 c’2b2|a2g2 f2e2|d4 d3d|d6 z2:|

